X: 39632
T: Temple Hill
R: reel
M: 4/4
K: Adorian
EAAB e2dB|eBdB GAAG|EAAB edef|1 gedB BAAG:|2 gedB BA (3Bcd||
e~a3 abag|egdg egdg|e~a3 abag|egdB B~A3|
e~a3 abag|egde ~g3a|b2af gefd|(3efg ed BAAG||
"Last time" (3efg ed BAGB|A8||

